icons/assets/dark/eslint.svg

<svg width="48" height="48" viewBox="0 0 48 48" fill="none" xmlns="http://www.w3.org/2000/svg">
<path d="M24 16L30.9282 20V28L24 32L17.0718 28V20L24 16Z" stroke="#62646A" stroke-width="3.5" stroke-linejoin="round"/>
<path d="M32.5 9.27757L41 24L32.5 38.7224H15.5L7 24L15.5 9.27757L32.5 9.27757Z" stroke="#62646A" stroke-width="3.5" stroke-linejoin="round"/>
</svg>

<svg width="48" height="48" fill="none" xmlns="http://www.w3.org/2000/svg"><path d="M24 16l6.928 4v8L24 32l-6.928-4v-8L24 16z" stroke="#62646A" stroke-width="3.5" stroke-linejoin="round"/><path d="M32.5 9.278L41 24l-8.5 14.722h-17L7 24l8.5-14.722h17z" stroke="#62646A" stroke-width="3.5" stroke-linejoin="round"/></svg>
